X: 73
M: 6/8
L: 1/8
K: D
(d/B/) | A> B A {de}f> e d |
	B> A B d> B A | A> B A
 {de}f> e d | Te> d (e/f/) {e}d2 (d/B/) |
	A> B A {g}f> e d | B> A B d B A |
	A> B A {de}f > e d | e> d e d2 ::
	e | f> e f g> f (e/d/) |
	B> A B d B A | f> e f
	g> f (e/d/) | e> d e d2 e |
	f> e f (g>f) (e/d/) | B> A B
	d> B A/ A/ | A> B A {de}f> e d |
	Te> d e d2 :|

